svg/u2695.svg

<svg viewBox="0 0 128 128" xmlns="http://www.w3.org/2000/svg">
  <path d="M55.78,36.45l-18.82,2.8L16.61,28.51c0,0-1.75,10.53,10.26,14.59c10.81,3.65,24.45,3.39,38.4,3.61 c14.41,0.22,23.31-0.32,26.49,2.33c1.8,1.5,0.67,4.46,0.67,4.46s7.06-1.01,7.06-1.37s-0.09-8.75-0.8-9.02 c-0.71-0.27-23.57-6.52-23.57-6.52s-4.46-0.03-9.21-0.06C61,36.49,55.97,36.46,55.78,36.45z" fill="#5731A5"/>
  <path d="M25.7,32.19l-2.32-6.61l5-2.32l9.92,3.66l7.24,0.63c0,0-0.09,2.51-7.41,2.16 c-8.03-0.39-9.03-1.82-10.06-0.96c-0.99,0.82-0.6,2.49,0.38,3.41c2.01,1.88,6.53,2.95,6.53,2.95L25.7,32.19z" fill="#5731A5"/>
  <path d="M27.76,61.85c0,0-1.61,2.77-1.16,6.7c0.45,3.93,3.39,8.22,10.09,10.27s18.85,3.75,28.68,4.73 s18.4,2.14,20.37,3.13c1.97,0.98,1.34,3.13,1.61,3.39c0.27,0.27,3.57,1.34,4.38,0.89c0.8-0.45,0.63-8.4,0.63-8.4l-16.62-8.31 c0,0-3.77-0.49-10.14-1.13c-5.66-0.58-9.19-1.17-9.19-1.17s-14.79,0.52-15.51-0.2C40.18,71.05,27.76,61.85,27.76,61.85z" fill="#5731A5"/>
  <path d="M55.56,105.76l19.27,2.63l4.82,4.38l8.4,4.91l3.39,4.02c0,0-0.34,2.19-2.41,1.34 c-1.97-0.8-2.23-3.66-7.95-5.99s-10.45-2.32-15.99-2.68s-16.79-1.7-21.89-3.57c-4.17-1.54-7.68-4.46-7.86-9.02 c-0.22-5.45,4.71-7.5,4.71-7.5l4.04,10.63L55.56,105.76z" fill="#5731A5"/>
  <path d="M61.21,24.67c0,0,0,93.08,0,95.41c0,2.33,0.78,4.36,4.19,4.34c3.98-0.02,4.28-2.16,4.26-3.87 c-0.02-1.97-0.08-96.03-0.08-96.03L61.21,24.67z" fill="#7855BD"/>
  <path d="M34.9,34.88c-7.85-1.59-10.67-5.35-9.54-8.08c0.94-2.27,4.03-1.95,5.43-1.32 c0.97,0.43,4.04,2.51,8.15,2.79s6.59-0.72,6.59-0.72s0.3-0.76-1.09-0.88c-2.07-0.18-3.56-0.07-3.48-1.18 c0.07-0.95,1.98-1.11,3.85-1.32c2.49-0.28,4.11-0.65,4.22-1.33c0.08-0.48-3.08-8.38-14.24-7.95c-10.93,0.42-18.42,6.77-18.28,15.05 c0.11,6.41,8.37,9.94,16.94,11.39c8.6,1.46,22.34,1.44,22.34,1.44l0-6.33C55.8,36.43,43.47,36.63,34.9,34.88z M35.08,21.44 c0.03-1.26,0.58-2.57,2.25-2.5c1.45,0.06,1.93,1.51,1.9,2.64c-0.03,1.13-0.8,2.29-2.09,2.19C35.85,23.68,35.04,22.63,35.08,21.44z" fill="#7855BD"/>
  <path d="M61.21,24.67v4.1c0,0,1.29,1.49,4.27,1.42s4.12-1.15,4.12-1.15l0.03-4.16c0,0,4.26-0.87,6.1-5.1 c1.69-3.89,1.06-7.86,1.06-7.86l-21.79-0.11c0,0-0.94,4.5,0.81,8.21C57.68,23.99,61.21,24.67,61.21,24.67z" fill="#5731A5"/>
  <path d="M65.69,20.17c9.17,0.24,11.15-7.72,11.15-7.72S76.16,3.52,65.8,3.33c-9-0.17-10.68,7.9-10.81,8.48 S57.08,19.95,65.69,20.17z" fill="#7855BC"/>
  <path d="M104.93,47.44c0,0,0.74,2.08-0.25,7.17c-0.32,1.62-2.55,7.18-12.76,8.77 c-9.69,1.51-22.35,1.65-22.35,1.65v3.91c0,0-2.35,0.35-4.44,0.35s-3.89-0.48-3.89-0.48v-3.78c0,0-14.13,0.13-16.55,0.13 c-1.3,0-4.36,0.33-4.36,2.5c0,2.79,4.72,4.24,4.72,4.24s-9.48,0.78-9.57,0.09c-0.09-0.7,0.96-12.18,0.96-12.18l30.35-2.35 c0,0,26.09-0.26,27.31-0.7C95.32,56.33,104.93,47.44,104.93,47.44z" fill="#5731A5"/>
  <path d="M46.96,103.21c0,0-0.73-2.65,2.87-2.69c2.5-0.02,11.37,0.15,11.37,0.15l0,5.3l8.45,0.02l-0.01-5.16 c0,0,17.31,0.51,22.76-2.27c7.17-3.65,7.48-7.9,7.4-11.6c-0.09-3.7-7.68,1.37-7.68,1.37l-8,6.17l-27.78,0.45l-13.6,2.75l-0.26,6.8 L46.96,103.21z" fill="#5731A5"/>
  <path d="M74.75,112.81l0.08-4.42c0,0,6.37,1.03,10.05,3.82c5.93,4.52,6.44,8.36,6.57,9.49 c0.13,1.13-3.58-3.02-5.1-4.21C80.56,112.98,74.75,112.81,74.75,112.81z" fill="#7957BB"/>
  <path d="M55.68,110.46l-0.08-4.71c0,0-9.84-1.18-9.87-4.33c-0.02-2.59,1.93-3.47,8.75-3.2 c6.69,0.26,30.89,1.39,39.22-3.19c3.68-2.02,6.05-4.6,6.1-7.93c0.04-2.74-1.19-5.24-4.39-7.45c-6.13-4.23-19.68-5.37-19.68-5.37 l-0.16,6.52c0,0,12.63,1.4,12.99,6.46c0.31,4.28-18.35,4.78-23.58,4.75c-8.47-0.05-28.41-1.86-28.26,7.4 c0.12,6.9,8.15,9.36,13.72,10.23C53.42,110.08,55.68,110.46,55.68,110.46z" fill="#7855BC"/>
  <path d="M55.55,79.16l0.85-7.21c0,0-3.07-0.39-6.29-0.79c-5.04-0.63-11.68-2.12-11.58-5.01 c0.19-5.52,9.96-4.73,20.31-4.59c17.51,0.23,32.28-0.87,37.43-2.1c7.78-1.87,9.11-6.7,8.87-10.82c-0.2-3.55-1.68-5.82-4.45-7.83 c-2.39-1.73-5.79-2.7-9.38-3.21c-5.61-0.8-16.21-1.03-16.21-1.03l0.08,6.63c0,0,13.04,0.26,16.03,1.4c4.9,1.87,3.66,8.09-1.63,9.1 s-14.67,1.24-24.74,1.48c-6.35,0.15-26.62-1.94-34.36,3.77c-1.83,1.35-3.3,3.14-3.39,5.5c-0.36,9.28,12.89,11.8,21.36,13.5 C52.51,78.77,55.55,79.16,55.55,79.16z" fill="#7855BD"/>
</svg>

<svg viewBox="0 0 128 128" xmlns="http://www.w3.org/2000/svg">
  <defs/>
  <path d="M55.78,36.45 L36.96,39.25 L16.61,28.51 C16.61,28.51 14.86,39.04 26.87,43.1 C37.68,46.75 51.32,46.49 65.27,46.71 C79.68,46.93 88.58,46.39 91.76,49.04 C93.56,50.54 92.43,53.5 92.43,53.5 C92.43,53.5 99.49,52.49 99.49,52.13 C99.49,51.77 99.4,43.38 98.69,43.11 C97.98,42.84 75.12,36.59 75.12,36.59 C75.12,36.59 70.66,36.56 65.91,36.53 C61,36.49 55.97,36.46 55.78,36.45 Z" fill="#5731A5"/>
  <path d="M25.7,32.19 L23.38,25.58 L28.38,23.26 L38.3,26.92 L45.54,27.55 C45.54,27.55 45.45,30.06 38.13,29.71 C30.1,29.32 29.1,27.89 28.07,28.75 C27.08,29.57 27.47,31.24 28.45,32.16 C30.46,34.04 34.98,35.11 34.98,35.11 L25.7,32.19 Z" fill="#5731A5"/>
  <path d="M27.76,61.85 C27.76,61.85 26.15,64.62 26.6,68.55 C27.05,72.48 29.99,76.77 36.69,78.82 C43.39,80.87 55.54,82.57 65.37,83.55 C75.2,84.53 83.77,85.69 85.74,86.68 C87.71,87.66 87.08,89.81 87.35,90.07 C87.62,90.34 90.92,91.41 91.73,90.96 C92.53,90.51 92.36,82.56 92.36,82.56 L75.74,74.25 C75.74,74.25 71.97,73.76 65.6,73.12 C59.94,72.54 56.41,71.95 56.41,71.95 C56.41,71.95 41.62,72.47 40.9,71.75 C40.18,71.05 27.76,61.85 27.76,61.85 Z" fill="#5731A5"/>
  <path d="M55.56,105.76 L74.83,108.39 L79.65,112.77 L88.05,117.68 L91.44,121.7 C91.44,121.7 91.1,123.89 89.03,123.04 C87.06,122.24 86.8,119.38 81.08,117.05 C75.36,114.72 70.63,114.73 65.09,114.37 C59.55,114.01 48.3,112.67 43.2,110.8 C39.03,109.26 35.52,106.34 35.34,101.78 C35.12,96.33 40.05,94.28 40.05,94.28 L44.09,104.91 L55.56,105.76 Z" fill="#5731A5"/>
  <path d="M61.21,24.67 C61.21,24.67 61.21,117.75 61.21,120.08 C61.21,122.41 61.99,124.44 65.4,124.42 C69.38,124.4 69.68,122.26 69.66,120.55 C69.64,118.58 69.58,24.52 69.58,24.52 L61.21,24.67 Z" fill="#7855BD"/>
  <path d="M34.9,34.88 C27.05,33.29 24.23,29.53 25.36,26.8 C26.3,24.53 29.39,24.85 30.79,25.48 C31.76,25.91 34.83,27.99 38.94,28.27 C43.05,28.55 45.53,27.55 45.53,27.55 C45.53,27.55 45.83,26.79 44.44,26.67 C42.37,26.49 40.88,26.6 40.96,25.49 C41.03,24.54 42.94,24.38 44.81,24.17 C47.3,23.89 48.92,23.52 49.03,22.84 C49.11,22.36 45.95,14.46 34.79,14.89 C23.86,15.31 16.37,21.66 16.51,29.94 C16.62,36.35 24.88,39.88 33.45,41.33 C42.05,42.79 55.79,42.77 55.79,42.77 L55.79,36.44 C55.8,36.43 43.47,36.63 34.9,34.88 Z M35.08,21.44 C35.11,20.18 35.66,18.87 37.33,18.94 C38.78,19 39.26,20.45 39.23,21.58 C39.2,22.71 38.43,23.87 37.14,23.77 C35.85,23.68 35.04,22.63 35.08,21.44 Z" fill="#7855BD"/>
  <path d="M61.21,24.67 L61.21,28.77 C61.21,28.77 62.5,30.26 65.48,30.19 C68.46,30.12 69.6,29.04 69.6,29.04 L69.63,24.88 C69.63,24.88 73.89,24.01 75.73,19.78 C77.42,15.89 76.79,11.92 76.79,11.92 L55,11.81 C55,11.81 54.06,16.31 55.81,20.02 C57.68,23.99 61.21,24.67 61.21,24.67 Z" fill="#5731A5"/>
  <path d="M65.69,20.17 C74.86,20.41 76.84,12.45 76.84,12.45 C76.84,12.45 76.16,3.52 65.8,3.33 C56.8,3.16 55.12,11.23 54.99,11.81 C54.86,12.39 57.08,19.95 65.69,20.17 Z" fill="#7855BC"/>
  <path d="M104.93,47.44 C104.93,47.44 105.67,49.52 104.68,54.61 C104.36,56.23 102.13,61.79 91.92,63.38 C82.23,64.89 69.57,65.03 69.57,65.03 L69.57,68.94 C69.57,68.94 67.22,69.29 65.13,69.29 C63.04,69.29 61.24,68.81 61.24,68.81 L61.24,65.03 C61.24,65.03 47.11,65.16 44.69,65.16 C43.39,65.16 40.33,65.49 40.33,67.66 C40.33,70.45 45.05,71.9 45.05,71.9 C45.05,71.9 35.57,72.68 35.48,71.99 C35.39,71.29 36.44,59.81 36.44,59.81 L66.79,57.46 C66.79,57.46 92.88,57.2 94.1,56.76 C95.32,56.33 104.93,47.44 104.93,47.44 Z" fill="#5731A5"/>
  <path d="M46.96,103.21 C46.96,103.21 46.23,100.56 49.83,100.52 C52.33,100.5 61.2,100.67 61.2,100.67 L61.2,105.97 L69.65,105.99 L69.64,100.83 C69.64,100.83 86.95,101.34 92.4,98.56 C99.57,94.91 99.88,90.66 99.8,86.96 C99.71,83.26 92.12,88.33 92.12,88.33 L84.12,94.5 L56.34,94.95 L42.74,97.7 L42.48,104.5 L46.96,103.21 Z" fill="#5731A5"/>
  <path d="M74.75,112.81 L74.83,108.39 C74.83,108.39 81.2,109.42 84.88,112.21 C90.81,116.73 91.32,120.57 91.45,121.7 C91.58,122.83 87.87,118.68 86.35,117.49 C80.56,112.98 74.75,112.81 74.75,112.81 Z" fill="#7957BB"/>
  <path d="M55.68,110.46 L55.6,105.75 C55.6,105.75 45.76,104.57 45.73,101.42 C45.71,98.83 47.66,97.95 54.48,98.22 C61.17,98.48 85.37,99.61 93.7,95.03 C97.38,93.01 99.75,90.43 99.8,87.1 C99.84,84.36 98.61,81.86 95.41,79.65 C89.28,75.42 75.73,74.28 75.73,74.28 L75.57,80.8 C75.57,80.8 88.2,82.2 88.56,87.26 C88.87,91.54 70.21,92.04 64.98,92.01 C56.51,91.96 36.57,90.15 36.72,99.41 C36.84,106.31 44.87,108.77 50.44,109.64 C53.42,110.08 55.68,110.46 55.68,110.46 Z" fill="#7855BC"/>
  <path d="M55.55,79.16 L56.4,71.95 C56.4,71.95 53.33,71.56 50.11,71.16 C45.07,70.53 38.43,69.04 38.53,66.15 C38.72,60.63 48.49,61.42 58.84,61.56 C76.35,61.79 91.12,60.69 96.27,59.46 C104.05,57.59 105.38,52.76 105.14,48.64 C104.94,45.09 103.46,42.82 100.69,40.81 C98.3,39.08 94.9,38.11 91.31,37.6 C85.7,36.8 75.1,36.57 75.1,36.57 L75.18,43.2 C75.18,43.2 88.22,43.46 91.21,44.6 C96.11,46.47 94.87,52.69 89.58,53.7 C84.29,54.71 74.91,54.94 64.84,55.18 C58.49,55.33 38.22,53.24 30.48,58.95 C28.65,60.3 27.18,62.09 27.09,64.45 C26.73,73.73 39.98,76.25 48.45,77.95 C52.51,78.77 55.55,79.16 55.55,79.16 Z" fill="#7855BD"/>
</svg>
